src/status/32/weather-clear-night.svg

<?xml version="1.0" encoding="UTF-8"?>
<svg width="32" height="32" version="1.1" viewBox="0 0 32 32" xmlns="http://www.w3.org/2000/svg">
 <path d="m3 16a13 13 0 0 1 13-13 13 13 0 0 1 13 13 13 13 0 0 1-13 13 13 13 0 0 1-13-13z" fill="#eceff1" stroke-width="1.0834"/>
 <g fill="#d1d9dd">
  <circle cx="11.5" cy="10.5" r="1.5"/>
  <circle cx="21.049" cy="18.964" r="2.5"/>
  <circle cx="9.7779" cy="19.751" r="2.5"/>
  <circle cx="14.716" cy="23.659" r="1.5"/>
  <circle cx="18.5" cy="9.5" r=".5"/>
 </g>
 <path d="m16 3a13 13 0 0 0-13 13 13 13 0 0 0 0.015625 0.23047 13 13 0 0 1 12.984-12.77 13 13 0 0 1 12.992 12.656 13 13 0 0 0 0.007812-0.11719 13 13 0 0 0-13-13z" fill="#fff" opacity=".5"/>
 <path d="m28.99 15.637a13 13 0 0 1-12.99 12.877 13 13 0 0 1-12.982-12.756 13 13 0 0 0-0.017578 0.24219 13 13 0 0 0 13 13 13 13 0 0 0 13-13 13 13 0 0 0-0.009766-0.36328z" opacity=".15"/>
</svg>

<svg xmlns="http://www.w3.org/2000/svg" width="32" height="32">
    <path fill="#ececec" d="M3 16A13 13 0 0 1 16 3a13 13 0 0 1 13 13 13 13 0 0 1-13 13A13 13 0 0 1 3 16z"/>
    <g fill="#dbdbe3">
        <circle cx="11.5" cy="10.5" r="1.5"/>
        <circle cx="21.049" cy="18.964" r="2.5"/>
        <circle cx="9.778" cy="19.751" r="2.5"/>
        <circle cx="14.716" cy="23.659" r="1.5"/>
        <circle cx="18.5" cy="9.5" r=".5"/>
    </g>
    <path fill="#fff" d="M16 3A13 13 0 0 0 3 16a13 13 0 0 0 .016.23A13 13 0 0 1 16 3.46a13 13 0 0 1 12.992 12.656 13 13 0 0 0 .007-.117A13 13 0 0 0 16 3z" opacity=".5"/>
    <path d="M28.99 15.637A13 13 0 0 1 16 28.514 13 13 0 0 1 3.018 15.758 13 13 0 0 0 3 16a13 13 0 0 0 13 13 13 13 0 0 0 13-13 13 13 0 0 0-.01-.363z" opacity=".15"/>
</svg>
